assets/encircled-plus-fill.svg

<svg xmlns="http://www.w3.org/2000/svg" fill="none" viewBox="0 0 29 29">
  <path fill="#2A2238" fill-rule="evenodd" d="M28.799 14.799c0 7.732-6.2681 14-14 14-7.73204 0-14.00005-6.268-14.00005-14C.79895 7.06701 7.06696.798996 14.799.798996c7.7319 0 14 6.268014 14 14.000004Zm-22.75005 0c0-.4142.33579-.75.75-.75H14.049v-6.25c0-.41422.3357-.75.75-.75.4142 0 .75.33578.75.75v6.25h6.25c.4142 0 .75.3358.75.75s-.3358.75-.75.75h-6.25v7.25c0 .4142-.3358.75-.75.75-.4143 0-.75-.3358-.75-.75v-7.25H6.79895c-.41421 0-.75-.3358-.75-.75Z" clip-rule="evenodd"/>
</svg>

<svg width="29" height="29" viewBox="0 0 29 29" fill="none" xmlns="http://www.w3.org/2000/svg">
<path fill-rule="evenodd" clip-rule="evenodd" d="M28.799 14.799C28.799 22.531 22.5309 28.799 14.799 28.799C7.06696 28.799 0.79895 22.531 0.79895 14.799C0.79895 7.06701 7.06696 0.798996 14.799 0.798996C22.5309 0.798996 28.799 7.06701 28.799 14.799ZM6.04895 14.799C6.04895 14.3848 6.38474 14.049 6.79895 14.049H14.049V7.799C14.049 7.38478 14.3847 7.049 14.799 7.049C15.2132 7.049 15.549 7.38478 15.549 7.799V14.049L21.799 14.049C22.2132 14.049 22.549 14.3848 22.549 14.799C22.549 15.2132 22.2132 15.549 21.799 15.549L15.549 15.549L15.549 22.799C15.549 23.2132 15.2132 23.549 14.799 23.549C14.3847 23.549 14.049 23.2132 14.049 22.799L14.049 15.549H6.79895C6.38474 15.549 6.04895 15.2132 6.04895 14.799Z" fill="#2A2238"/>
</svg>
